X: 1922
T:Mark Rankin's
R:jig
C:Dougie MacDonald
O:20th century Cape Breton
D:Fiddle Tunes
B:Cape Breton Fiddler Dougie MacDonald:Fiddle Tunes, 1993
N:Bookings,Mechanicals etc.
N:..... Dougie MacDonald <dougie@cranfordpub.com>
N:More tunes and information <http://www.cranfordpub.com/dougie>
Z:This abc transcription is for personal use only,
Z:provided this notice remains attached.
Z:Used by permission of the composer.
Z:Paul Stewart Cranford 
Q:333
L:1/8
M:6/8
K:Ador
B|A3 ged|e2 A ABc|deA cBA|G2 d BAG|!
A2 e ged|edB c2 d|ege ded|BAG A2:|!
|:B|cBA age|ded BAG|cBA aga|bge eab|!
g2 a gfe|dgd Bcd|e2 A gfe|dBG A2:|]!
